/* XPM - Sunday app icon (generated by branding/gen-assets.mjs) */
static char * sunday_xpm[] = {
"48 48 20 2",
"00 c None",
"01 c #333399",
"02 c #333366",
"03 c #3333cc",
"04 c #666666",
"05 c #999966",
"06 c #cccc66",
"07 c #cc9966",
"08 c #ffcc66",
"09 c #996666",
"0a c #333333",
"0b c #666633",
"0c c #cc9933",
"0d c #ff9966",
"0e c #996633",
"0f c #ffcc33",
"0g c #663333",
"0h c #ff9933",
"0i c #003333",
"0j c #000033",
"000000000000000001010202020202020202020202020202020202020202020202020202020201010000000000000000",
"000000000003020202020202020202020202020202020202020202020202020202020202020202020202030000000000",
"000000000102020202020202020202020202020202020202020202020202020202020202020202020202020100000000",
"000000020202020202020202020202020202020202020202020202020202020202020202020202020202020202000000",
"000002020202020202020202020202020202020202020202020202020202020202020202020202020202020202020000",
"000102020202020202020202020202020202020202020202020202020202020202020202020202020202020202020100",
"000202020202020202020202020202020202020202020202020202020202020202020202020202020202020202020200",
"000202020202020202020202020202020202020202020202020202020202020202020202020202020202020202020200",
"010202020202020202020202020202020202020202020202020202020202020202020202020202020202020202020201",
"020202020202020202020202020202020202020204050606060605040202020202020202020202020202020202020202",
"020202020202020202020202020202020202020708080808080808080702020202020202020202020202020202020202",
"020202020202020202020202020202020204060808080808080808080806040202020202020202020202020202020202",
"020202020202020202020202020202020206080808080808080808080808060202020202020202020202020202020202",
"020202020202020202020202020202020508080808070402020407080808080502020202020202020202020202020202",
"020202020202020202020202020202020808080805020202020202050808080702020202020202020202020202020202",
"020202020202020202020202020202090808080702020202020202020708080902020202020202020202020202020202",
"020202020202020202020202020202050808080902020202020202020204040202020202020202020202020202020202",
"020202020202020202020202020202070808080402020202020202020202020202020202020202020202020202020202",
"020202020202020202020202020202070808080402020202020202020202020202020202020202020202020202020202",
"020202020202020202020202020202090808080502020202020202020202020202020202020202020202020202020202",
"020202020202020202020202020202040808080804020202020202020202020202020202020202020202020202020202",
"020202020202020202020202020202020708080807040202090402020202020202020202020202020202020202020202",
"020202020202020202020202020202020408080808080709080808070402020202020202020202020202020202020202",
"020202020202020202020202020202020209080808080808080808080809020202020202020202020202020202020202",
"020202020202020202020202020202020202090808080808080808080808090202020202020202020202020202020202",
"020a0a0a0a0a0a0a0a0a0a0a0a0a0a0a0a0a0a0b0c0d08080e07080808080f0b0a0a0a0a0a0a0a0a0a0a0a0a0a0a0a02",
"020a0a0a0a0a0a0a0a0a0a0a0a0a0a0a0a0a0a0a0a0a0b0e0a0a0b0c0f0f0f0c0a0a0a0a0a0a0a0a0a0a0a0a0a0a0a02",
"020a0a0a0a0a0a0a0a0a0a0a0a0a0a0a0a0a0a0a0a0a0a0a0a0a0a0g0h0f0f0f0g0a0a0a0a0a0a0a0a0a0a0a0a0a0a02",
"020a0a0a0a0a0a0a0a0a0a0a0a0a0a0a0a0a0a0a0a0a0a0a0a0a0a0a0e0f0f0f0e0a0a0a0a0a0a0a0a0a0a0a0a0a0a02",
"020a0a0a0a0a0a0a0a0a0a0a0a0a0a0a0a0a0a0a0a0a0a0a0a0a0a0a0b0f0f0f0c0a0a0a0a0a0a0a0a0a0a0a0a0a0a02",
"020i0i0i0i0i0i0i0i0i0i0i0i0i0i0i0i0i0i0i0i0i0i0i0i0i0i0i0g0h0h0h0c0i0i0i0i0i0i0i0i0i0i0i0i0i0i02",
"0a0i0i0i0i0i0i0i0i0i0i0i0i0i0i0i0a0g0b0a0i0i0i0i0i0i0i0i0e0h0h0h0e0i0i0i0i0i0i0i0i0i0i0i0i0i0i0a",
"0a0i0i0i0i0i0i0i0i0i0i0i0i0i0i0i0e0h0h0c0a0i0i0i0i0i0i0a0c0h0h0h0b0i0i0i0i0i0i0i0i0i0i0i0i0i0i0a",
"0a0i0i0i0i0i0i0i0i0i0i0i0i0i0i0a0c0h0h0h0e0a0i0i0i0i0a0e0h0h0h0c0a0i0i0i0i0i0i0i0i0i0i0i0i0i0i0a",
"0i0i0i0i0i0i0i0i0i0i0i0i0i0i0i0i0e0h0h0h0h0c0g0a0a0g0c0h0h0h0h0e0a0i0i0i0i0i0i0i0i0i0i0i0i0i0i0i",
"0i0j0j0j0j0j0j0j0j0j0j0j0j0j0j0j0a0c0h0h0h0h0h0c0c0h0h0h0h0h0c0a0j0j0j0j0j0j0j0j0j0j0j0j0j0j0j0i",
"0i0j0j0j0j0j0j0j0j0j0j0j0j0j0j0j0j0a0c0h0h0h0h0h0h0h0h0h0h0c0a0j0j0j0j0j0j0j0j0j0j0j0j0j0j0j0j0i",
"0i0j0j0j0j0j0j0j0j0j0j0j0j0j0j0j0j0j0a0e0h0h0h0h0h0h0h0h0e0a0j0j0j0j0j0j0j0j0j0j0j0j0j0j0j0j0j0i",
"0i0j0j0j0j0j0j0j0j0j0j0j0j0j0j0j0j0j0j0a0g0e0c0c0c0c0e0g0a0j0j0j0j0j0j0j0j0j0j0j0j0j0j0j0j0j0j0i",
"0a0j0j0j0j0j0j0j0j0j0j0j0j0j0j0j0j0j0j0j0j0j0a0a0a0a0j0j0j0j0j0j0j0j0j0j0j0j0j0j0j0j0j0j0j0j0j0a",
"000j0j0j0j0j0j0j0j0j0j0j0j0j0j0j0j0j0j0j0j0j0j0j0j0j0j0j0j0j0j0j0j0j0j0j0j0j0j0j0j0j0j0j0j0j0j00",
"000j0j0j0j0j0j0j0j0j0j0j0j0j0j0j0j0j0j0j0j0j0j0j0j0j0j0j0j0j0j0j0j0j0j0j0j0j0j0j0j0j0j0j0j0j0j00",
"00020j0j0j0j0j0j0j0j0j0j0j0j0j0j0j0j0j0j0j0j0j0j0j0j0j0j0j0j0j0j0j0j0j0j0j0j0j0j0j0j0j0j0j0j0200",
"00000j0j0j0j0j0j0j0j0j0j0j0j0j0j0j0j0j0j0j0j0j0j0j0j0j0j0j0j0j0j0j0j0j0j0j0j0j0j0j0j0j0j0j0j0000",
"0000000j0j0j0j0j0j0j0j0j0j0j0j0j0j0j0j0j0j0j0j0j0j0j0j0j0j0j0j0j0j0j0j0j0j0j0j0j0j0j0j0j0j000000",
"000000000j0j0j0j0j0j0j0j0j0j0j0j0j0j0j0j0j0j0j0j0j0j0j0j0j0j0j0j0j0j0j0j0j0j0j0j0j0j0j0j00000000",
"0000000000020j0j0j0j0j0j0j0j0j0j0j0j0j0j0j0j0j0j0j0j0j0j0j0j0j0j0j0j0j0j0j0j0j0j0j0j020000000000",
"00000000000000000j0j0j0j0j0j0j0j0j0j0j0j0j0j0j0j0j0j0j0j0j0j0j0j0j0j0j0j0j0j0j0j0000000000000000",
};
